polaris-icons/icons/new-icons/ViewportShortMajor.svg

<svg width="20" height="20" viewBox="0 0 20 20" fill="none" xmlns="http://www.w3.org/2000/svg">
<path d="M10.0002 4C9.58597 4 9.25018 4.33579 9.25018 4.75L9.25018 7.18974L8.53051 6.47007C8.23762 6.17717 7.76275 6.17717 7.46985 6.47007C7.17696 6.76296 7.17696 7.23783 7.46985 7.53073L9.46985 9.53073C9.61051 9.67139 9.8013 9.75041 10.0002 9.7504C10.1991 9.75039 10.3899 9.67135 10.5306 9.53068L12.5306 7.53028C12.8234 7.23735 12.8234 6.76248 12.5305 6.46962C12.2375 6.17675 11.7627 6.1768 11.4698 6.46972L10.7502 7.18948L10.7502 4.75C10.7502 4.33579 10.4144 4 10.0002 4Z" fill="#4A4A4A"/>
<path d="M4.75 12.25C3.7835 12.25 3 11.4665 3 10.5V9.5C3 8.5335 3.7835 7.75 4.75 7.75L6.625 7.75C7.03921 7.75 7.375 8.08579 7.375 8.5C7.375 8.91421 7.03921 9.25 6.625 9.25H4.75C4.61193 9.25 4.5 9.36193 4.5 9.5V10.5C4.5 10.6381 4.61193 10.75 4.75 10.75H6.625C7.03921 10.75 7.375 11.0858 7.375 11.5C7.375 11.9142 7.03921 12.25 6.625 12.25H4.75Z" fill="#4A4A4A"/>
<path d="M12.625 11.5C12.625 11.0858 12.9608 10.75 13.375 10.75H15.25C15.3881 10.75 15.5 10.6381 15.5 10.5V9.5C15.5 9.36193 15.3881 9.25 15.25 9.25L13.375 9.25C12.9608 9.25 12.625 8.91421 12.625 8.5C12.625 8.08579 12.9608 7.75 13.375 7.75H15.25C16.2165 7.75 17 8.5335 17 9.5V10.5C17 11.4665 16.2165 12.25 15.25 12.25L13.375 12.25C12.9608 12.25 12.625 11.9142 12.625 11.5Z" fill="#4A4A4A"/>
<path d="M9.25018 15.25C9.25018 15.6642 9.58597 16 10.0002 16C10.4144 16 10.7502 15.6642 10.7502 15.25V12.8105L11.4698 13.5303C11.7627 13.8232 12.2375 13.8232 12.5305 13.5304C12.8234 13.2375 12.8234 12.7626 12.5306 12.4697L10.5306 10.4693C10.3899 10.3286 10.1991 10.2496 10.0002 10.2496C9.80129 10.2496 9.61051 10.3286 9.46985 10.4693L7.46985 12.4693C7.17696 12.7622 7.17696 13.237 7.46985 13.5299C7.76275 13.8228 8.23762 13.8228 8.53051 13.5299L9.25018 12.8103V15.25Z" fill="#4A4A4A"/>
</svg>

<svg viewBox="0 0 20 20" xmlns="http://www.w3.org/2000/svg"><path d="M10 4a.75.75 0 0 0-.75.75v2.44l-.72-.72a.75.75 0 1 0-1.06 1.06l2 2a.75.75 0 0 0 1.06 0l2-2a.75.75 0 0 0-1.06-1.06l-.72.72v-2.44a.75.75 0 0 0-.75-.75Z" fill="#5C5F62"/><path d="M4.75 12.25a1.75 1.75 0 0 1-1.75-1.75v-1c0-.966.784-1.75 1.75-1.75h1.875a.75.75 0 0 1 0 1.5h-1.875a.25.25 0 0 0-.25.25v1c0 .138.112.25.25.25h1.875a.75.75 0 0 1 0 1.5h-1.875Z" fill="#5C5F62"/><path d="M12.625 11.5a.75.75 0 0 1 .75-.75h1.875a.25.25 0 0 0 .25-.25v-1a.25.25 0 0 0-.25-.25h-1.875a.75.75 0 0 1 0-1.5h1.875c.966 0 1.75.784 1.75 1.75v1a1.75 1.75 0 0 1-1.75 1.75h-1.875a.75.75 0 0 1-.75-.75Z" fill="#5C5F62"/><path d="M9.25 15.25a.75.75 0 0 0 1.5 0v-2.44l.72.72a.75.75 0 0 0 1.06-1.06l-2-2a.75.75 0 0 0-1.06 0l-2 2a.75.75 0 1 0 1.06 1.06l.72-.72v2.44Z" fill="#5C5F62"/></svg>
